!!!!SEGMENT: pl-wtm--a-35-118-84_piotrowski-aleksander--kto-winien-ja-czy-ty-milosc-ma-swoj-kres.krn
!!!cenid: 19xx:48
!!!COM: Piotrowski, Aleksander
!!!COM-rismID: pe50047948
!!!CDT: 1870-1938
!!!CNT: Russian
!!!OTL: Kto winien: ja czy ty?/Miłość ma swój kres
!!!PDT: 1927
!!!AGN: Secular
!!!YEC: Copyright 2022 Narodowy Instytut Fryderyka Chopina (https://polishscores.org)
!!!YEM: License CC-BY-4.0 (https://creativecommons.org/licenses/by/4.0)
!!!SMS-siglum: PL-Wtm
!!!SMS-shelfmark: A.35.118/84
!!!SMS-variant:
!!!SMS-altvar:
!!!SMS-shelfwork: W
!!!NIFC-rismSourceID: 1001219277
!!!NIFC-rismChildID: 1001219277
!!!NIFC-islandoraID: pl-wtm:96077
!!!URL-pdf-islandora: https://repozytorium.nifc.pl/islandora/object/pl-wtm%3A96077/datastream/PDF/view
!!!URL-scan: https://polish.musicsources.pl/pl/lokalizacje/galeria/druki-muzyczne/21288/2 @EN{Scan on Polish Music Sources Website} @PL{Skany w portalu Dziedzictwo Muzyki Polskiej w otwartym dostępie}
!!!IIIF:
!!!ONB-nifc:
!!!OMD: Moderato.
!!!AIN: 1 piano 1 vox
!!!key:
**kern	**kern	**dynam	**kern	**text	**text	**dynam
*part2	*part2	*part2	*part1	*part1	*part1	*part1
*staff3	*staff2	*	*staff1	*staff1	*staff1	*
*I"[Pianoforte]	*	*	*I"[Voce]	*	*	*
*Ipiano	*	*	*Ivox	*	*	*
*ICklav	*	*	*ICvox	*	*	*
*IGacmp	*	*	*IGsolo	*	*	*
*clefF4	*clefG2	*	*clefG2	*	*	*
*k[b-]	*k[b-]	*	*k[b-]	*	*	*
*d:	*d:	*	*d:	*	*	*
*M3/4	*M3/4	*	*M3/4	*	*	*
*>[A,B,B1,B,B2,C]	*>[A,B,B1,B,B2,C]	*	*>[A,B,B1,B,B2,C]	*	*	*
=1	=1	=1	=1	=1	=1	=1
*>A	*>A	*	*>A	*	*	*
4DD/	(4.a\ 4.aa	mf <	2.ryy	.	.	.
4A\ 4d 4f	.	.	.	.	.	.
.	8g#X\L 8gg#X	.	.	.	.	.
4A\ 4d 4f	8a\ 8aa	.	.	.	.	.
.	8ff\J 8fff	[	.	.	.	.
=2	=2	=2	=2	=2	=2	=2
*	*^	*	*	*	*	*
4BB-X/	2.ee/) 2.eee	4r	>	2.ryy	.	.	.
4E\ 4B-X 4d	.	4e\ 4g#X 4dd	.	.	.	.	.
4E\ 4B- 4d	.	4e\ 4g# 4dd	]	.	.	.	.
*	*v	*v	*	*	*	*	*
=3	=3	=3	=3	=3	=3	=3
4AA/	4.gn\ 4.ggn	<	2.ryy	.	.	.
4G\ 4A 4c#X	.	.	.	.	.	.
.	8f#X\L 8ff#X	.	.	.	.	.
4G\ 4A 4c#	8g\ 8gg	.	.	.	.	.
.	8ee\J 8eee	[	.	.	.	.
=4	=4	=4	=4	=4	=4	=4
*	*^	*	*	*	*	*
4BB-:\ 4F: 4B-: 4d:	2.dd/ 2.ddd	4r	>	2.ryy	.	.	.
4F~\	.	4fn:\ 4b-: 4dd:	.	.	.	.	.
4B-~\	.	4f:\ 4b-: 4dd:	]	.	.	.	.
*	*v	*v	*	*	*	*	*
=5	=5	=5	=5	=5	=5	=5
4GG^/	(4.e-X/	p <	2.ryy	.	.	.
4E-X\ 4G 4B-	.	.	.	.	.	.
.	8f/L	.	.	.	.	.
4G\ 4B- 4e-X	8g/	.	.	.	.	.
.	8b-/J	[	.	.	.	.
=6	=6	=6	=6	=6	=6	=6
4AA/	8b-~/L	>	2.ryy	.	.	.
.	8a~/	.	.	.	.	.
4.F\ 4.A 4.d	8a~/	.	.	.	.	.
.	8f~/	.	.	.	.	.
.	8f~/)	.	.	.	.	.
8r	8d~/J	]	.	.	.	.
=7	=7	=7	=7	=7	=7	=7
!	!	!LO:HP:b:t=dim. e decresc	!	!	!	!
2BBn/	2.G#X/ 2.d 2.f	>	2.ryy	.	.	.
4BB-X/	.	.	.	.	.	.
=8	=8	=8	=8	=8	=8	=8
2.AA;/	2.Gn;/ 2.c#X 2.e	.	2.ryy	.	.	.
!!LO:LB:g=original
=9!|:	=9!|:	=9!|:	=9!|:	=9!|:	=9!|:	=9!|:
*>B	*>B	*	*>B	*	*	*
4DD/	4r	p	2.r	.	.	.
4r	4F:/ 4A: 4d: 4f:	.	.	.	.	.
4r	4F:/ 4A: 4d: 4f:	.	.	.	.	.
=10	=10	=10	=10	=10	=10	=10
2AAA/	4r	.	2.r	.	.	.
.	2F:/ 2A: 2d: 2f:	.	.	.	.	.
4r	.	.	.	.	.	.
=11	=11	=11	=11	=11	=11	=11
4DD/	(>4.a/	<	4.a/	Mi-	Gdy	.
4A:\ 4d: 4f:	.	.	.	.	.	.
.	8g#X/L	.	8g#X/	-łość	na	.
4A:\ 4d: 4f:	8a/	.	8a/	ma	du-	.
.	8dd/J	[	8dd\	swój	-szy	.
=12	=12	=12	=12	=12	=12	=12
*	*^	*	*	*	*	*
2.GG/	2.b-/)	4r	>	2.b-\	kres,	źle	.
.	.	4B-:\ 4d: 4e:	.	.	.	.	.
.	.	4B-:\ 4d: 4e:	]	.	.	.	.
*	*v	*v	*	*	*	*	*
=13	=13	=13	=13	=13	=13	=13
4AA/	(>4.e/	<	4.e/	Do-	Los	.
4G\ 4A 4c#X	.	.	.	.	.	.
.	8d#X/L	.	8d#X/	-syć	mi	.
4G\ 4A 4c#	8e/	.	8e/	by-	w ok-	.
.	8a/J	[	8a/	-ło	-na	.
=14	=14	=14	=14	=14	=14	=14
4DD/	2.f/)	>]	2.f/	łez	twe	.
4F:\ 4A: 4d:	.	.	.	.	.	.
4F:\ 4A: 4d:	.	.	.	.	.	.
=15	=15	=15	=15	=15	=15	=15
(8qqAAA-X/	.	.	.	.	.	.
*	*^	*	*	*	*	*
2AA-X/)	4d~/	4r	mf	4d/	Dziś	Pa-	.
.	4d~:/	4F:\ 4B-:	.	4d/	ko-	-trzeć	.
4ryy	4d~/	4F\ 4B-	.	4d/	-niec	na	.
=16	=16	=16	=16	=16	=16	=16	=16
2GG~/	4f~/	4r	.	4f/	mo-	tło	.
.	4e~/	4G\ 4B- 4d	.	4e/	-jej	szy-	.
4AA~/	4f~/	4G\ 4A 4c#X	.	4f/	nie	-by	.
!!LO:LB:g=original
=17	=17	=17	=17	=17	=17	=17	=17
.	8qf/	.	.	(8qf/	.	.	.
2DD~/	[2.d/	4r	.	2.d/)	do-	ka-	.
.	.	4F\ 4A	>	.	.	.	.
4AA~/	.	4F\ 4A	.	.	.	.	.
=18	=18	=18	=18	=18	=18	=18	=18
2.D\	2.d/]	4r	.	2d/	-li...	-że...	.
.	.	4F\ 4A	]	.	.	.	.
.	.	4F\ 4A	.	4r	.	.	.
*	*v	*v	*	*	*	*	*
=19	=19	=19	=19	=19	=19	=19
4DD/	(4.a/	<	4.a/	Nic	Czy	.
4A:\ 4d: 4f:	.	.	.	.	.	.
.	8g#X\L	.	8g#X/	nie	na	.
4A\ 4d 4f	8a\	.	8a/	łą-	jed-	.
.	8ff\J	[	8ff\	-czy	-no	.
=20	=20	=20	=20	=20	=20	=20
*	*^	*	*	*	*	*
4GG#X/	2.ee/)	4r	>	2.ee\	nas,	z mgnień	.
4E\ 4Bn 4d	.	4e\ 4bn 4dd	.	.	.	.	.
4E\ 4B 4d	.	4e\ 4b 4dd	]	.	.	.	.
*	*v	*v	*	*	*	*	*
=21	=21	=21	=21	=21	=21	=21
4EE/	(>4.e/	.	4.e/	Pło-	Two-	.
4E:\ 4G#X: 4d:	.	.	.	.	.	.
.	8d#X/L	<	8d#X/	-mień	-jej	.
4r	8e/	.	8e/	u-	gło-	.
.	8dd/J	.	8ddn\	-czuć	-wy	.
=22	=22	=22	=22	=22	=22	=22
*^	*^	*	*	*	*	*
4AA/	2.AA\	2.cc/)	4r	.	2.cc\	zgasł,	cień	.
4E/ 4A	.	.	4c\ 4e 4a	[	.	.	.	.
4E/ 4A	.	.	4c\ 4e 4a	.	.	.	.	.
*v	*v	*	*	*	*	*	*	*
=23	=23	=23	=23	=23	=23	=23	=23
4DD/	4bn^^/	4r	f	4bn^^\	Czas	Ko-	.
4F\ 4A 4Bn	4b^^/	4d\ 4f 4a	.	4b^^\	wszyst-	-cha-	.
4F\ 4A 4B	4b^^/	4d\ 4f 4a	.	4b^^\	-ko	-ny	.
=24	=24	=24	=24	=24	=24	=24	=24
4EE/	4bn~/	4r	.	4bn~\	le-	się	.
.	8qdd/	.	.	8qdd/	.	.	.
4E\ 4G#X 4d	4cc~/	4e\ 4g#X	.	4cc~\	-czy	nie	.
4E\ 4G# 4d	4b~/	4e\ 4g#	.	4b~\	po-	u-	.
!!LO:LB:g=original
=25	=25	=25	=25	=25	=25	=25	=25
4AA/	2.ee/	4r	<	2.ee\	-wo-	-ka-	.
4G~\	.	4e\ 4g 4b-X	.	.	.	.	.
4d~\	.	4e\ 4g 4b-	[	.	.	.	.
*	*v	*v	*	*	*	*	*
=26	=26	=26	=26	=26	=26	=26
8c#X~\L	2g/ 2a	.	2.a/	-li...	-że...	.
8e~\J	.	.	.	.	.	.
4B-~\	.	.	.	.	.	.
4A~\	4c#X/ 4e 4g	.	.	.	.	.
=27	=27	=27	=27	=27	=27	=27
.	(8qa/	.	.	.	.	.
4DD/	(4.aa\)	p	4.a/	Jed-	Cza-	.
4A:\ 4d: 4f:	.	.	.	.	.	.
.	8gg#X\L	.	8g#X/	-nak	-sem	.
4A\ 4d 4f	8aa\	.	8a/	w pew-	wi-	.
.	8ddd\J	.	8dd\	-ne	-dzę	.
=28	=28	=28	=28	=28	=28	=28
*	*^	*	*	*	*	*
4GG/	2.bb-/)	4r	.	2.b-\	dni,	ja	.
4G\ 4B- 4d	.	4b-\ 4dd 4ee	.	.	.	.	.
4G\ 4B- 4d	.	4b-\ 4dd 4ee	.	.	.	.	.
*	*v	*v	*	*	*	*	*
=29	=29	=29	=29	=29	=29	=29
.	8qe/	<	.	.	.	.
4AA/	(4.ee\	.	4.e/	Przesz-	Cie-	.
4G\ 4A 4c#X	.	.	.	.	.	.
.	8dd#X\L	.	8d#X/	-łość	-ni	.
4G\ 4A 4c#	8ee\	.	8e/	mi	tych	.
.	8aa\J	[	8a/	się	aż	.
=30	=30	=30	=30	=30	=30	=30
*	*^	*	*	*	*	*
4DD/	2.ff/)	4r	.	2.f/	śni,	dwa,	.
4A\ 4d	.	4f\ 4a 4dd	.	.	.	.	.
4A\ 4d	.	4f\ 4a 4dd	.	.	.	.	.
=31	=31	=31	=31	=31	=31	=31	=31
2DD/ 2AA	4d^^/	4r	mf	4d^^/	Chwi-	Z bó-	.
.	4d^^/	4F#X\ 4c	<	4d^^/	-le	-lu	.
4D\	4d^^/	4F#\ 4c	.	4d^^/	u-	me	.
=32	=32	=32	=32	=32	=32	=32	=32
2F#X\	4d^^/	2.c\	.	4d^^/	-po-	ser-	.
.	4f#X^^/	.	.	4f#X^^/	-jeń	-ce	.
4A\	4a^^/	.	[	4a^^/	ra-	za-	.
=33	=33	=33	=33	=33	=33	=33	=33
2.GG^^:\ 2.D: 2.B-:	2.dd^^/	4r	.	2.dd\	-doś-	-mie-	.
.	.	4d\ 4g 4b-	.	.	.	.	.
.	.	4d\ 4g 4b-	.	.	.	.	.
!!LO:PB:g=original
=34	=34	=34	=34	=34	=34	=34	=34
4AA-X\ 4A-X	2.dd^^/	4r	fz	2.dd\	-ci.	-ra.	.
2A-\ 2B-	.	4d\ 4fn 4b-	.	.	.	.	.
.	.	4d\ 4f 4b-	.	.	.	.	.
*	*v	*v	*	*	*	*	*
=35	=35	=35	=35	=35	=35	=35
!	!LO:TX:a:t=con passione	!	!	!	!	!
!	!LO:TX:b:t=rallent.	!	!LO:TX:a:t=rallent.	!	!	!
4AAAn/ 4AAn	4.ff~\	ff	4.ff~\	Nie	Z o-	.
4A\ 4d 4f	.	.	.	.	.	.
.	8dd~\L	.	8dd~\	chcę	-czu	.
4A\ 4d 4f	8ff~\	.	8ff~\	wie-	pa-	.
.	8dd~\J	.	8dd~\	-rzyć,	-da	.
=36	=36	=36	=36	=36	=36	=36
*	*^	*	*	*	*	*
4GGG#X/ 4GG#X	2.ff/	4r	.	2.ff\	nie!	łza...	.
4F\ 4G#X 4Bn 4d	.	4f\ 4g#X 4bn 4dd	.	.	.	.	.
4F\ 4G# 4B 4d	.	4f\ 4g# 4b 4dd	.	.	.	.	.
*	*v	*v	*	*	*	*	*
=37	=37	=37	=37	=37	=37	=37
4GGGn/ 4GGn	4.f^^\ 4.ff	fff	4.ff~\	Że	In-	.
4F\ 4B-X 4d 4f	.	.	.	.	.	.
.	8dd^^\L	.	8dd~\	nie	-ny	.
4F\ 4B- 4d 4f	8ff^^\	.	8ff~\	ko-	ktoś,	.
.	8dd^^\J	.	8dd~\	-chasz	nie	.
=38	=38	=38	=38	=38	=38	=38
*	*^	*	*	*	*	*
!	!	!	!	!	!	!	!LO:HP:a
4AAA-X/ 4AA-X	2.f^^/ 2.ff	4r	.	2.ff\	mnie,	ja...	<[
4F\ 4B- 4d	.	4f\ 4b- 4dd	.	.	.	.	.
4F\ 4B- 4d	.	4f\ 4b- 4dd	.	.	.	.	.
*	*v	*v	*	*	*	*	*
=39	=39;	=39	=39;	=39	=39	=39
!	!LO:TX:a:t=":rj	!	!	!	!	!
!	!LO:TX:a:t=meno mosso	!	!LO:TX:a:t=":rj	!	!	!LO:DY:a
4AAA/	(4.a/	p	4.a/	To	Sło-	pp
4.F:\ 4.A: 4.d:	.	.	.	.	.	.
.	8f/L	.	8f/	za-	-dycz	.
.	8e/	.	8e/	-prze-	z two-	.
8r	8d/J)	.	8d/	-cza	-ich	.
=40	=40	=40	=40	=40	=40	=40
4AAA/	(4.a/	.	4.a/	fak-	ust	.
4.F\ 4.G#X 4.Bn 4.d	.	.	.	.	.	.
.	8f/L	.	8f/	-tom	ko-	.
.	8e/	.	8e/	tej	-cha-	.
8r	8d/J)	.	8d/	prze-	-nych	.
=41	=41;	=41	=41	=41	=41	=41
*^	*^	*	*	*	*	*
!	!	!LO:TX:a:t=":rj	!	!	!	!	!	!
8AAA/L	4ryy	[2.a/	4r	<	2.a/	-szło-	zbie-	.
[8AA/J	.	.	.	.	.	.	.	.
[2A/	2AA\]	.	4G\ 4Bn 4d	[	.	.	.	.
.	.	.	4B\ 4d 4f#X	.	.	.	.	.
*v	*v	*	*	*	*	*	*	*
=42	=42	=42	=42	=42	=42	=42	=42
2.A\]	4a/]	4G\ 4A 4c#X 4e	>	4a/	-ści...	-ra!	.
.	4d\ 4e 4g 4b-	2ryy	.	4r	.	.	.
.	4c#\ 4g 4a	.	]]	4r	.	.	.
*	*v	*v	*	*	*	*	*
!!LO:LB:g=original
=43||	=43||	=43||	=43||	=43||	=43||	=43||
*k[f#c#]	*k[f#c#]	*	*k[f#c#]	*	*	*
*	*	*	*	*v:1.2.	*	*
4DD/ 4AA	(>4.f#/ 4.dd	p	4.dd\	Gdzie	.	.
4F#:\ 4A: 4d:	.	.	.	.	.	.
!	!LO:TX:b:t=molto cantabile	!	!	!	!	!
.	8d/L 8b	.	8b\	te	.	.
4r	8f#/ 8dd	.	8dd\	chwi-	.	.
.	8d/J) 8b	.	8b\	-le	.	.
=44	=44	=44	=44	=44	=44	=44
4AAA/	(>4.f#/ 4.cc#	.	4.cc#\	W któ-	.	.
4F#:\ 4A: 4d:	.	.	.	.	.	.
.	8d/L 8a	.	8a/	-rych	.	.
4r	8f#/ 8cc#	.	8cc#\	ty-	.	.
.	8d/J) 8a	.	8a/	-le	.	.
=45	=45	=45	=45	=45	=45	=45
4EE/	(>4.c#:/ 4.e: 4.g: 4.b:	mf	4.b\	szczęś-	.	.
4G\ 4A 4c#	.	.	.	.	.	.
.	8a/L	>	8a/	-cia	.	.
4G\ 4A 4c#	8g/	.	8g/	by-	.	.
.	8f#/J	.	8f#/	-ło	.	.
=46	=46	=46	=46	=46	=46	=46
*	*^	*	*	*	*	*
4AAA/	2f#/	4G\ 4A 4c#	.	2f#/	da-	.	.
4G\ 4A 4c#	.	4r	.	.	.	.	.
4G\ 4A 4c#	4e/)	4r	]	4e/	-ne,	.	.
*	*v	*v	*	*	*	*	*
=47	=47	=47	=47	=47	=47	=47
4EE/	(>4.c#:/ 4.e: 4.g: 4.b:	.	4.b\	Us-	.	.
4G\ 4A 4c#	.	.	.	.	.	.
.	8a/L	.	8a/	-ta	.	.
4G\ 4A 4c#	8g/	.	8g/	u-	.	.
.	8f#/J	.	8f#/	-ko-	.	.
=48	=48	=48	=48	=48	=48	=48
*	*^	*	*	*	*	*
4AAA/	2f#/	4G\ 4A 4c#	.	2f#/	-cha-	.	.
4G\ 4A 4c#	.	4r	.	.	.	.	.
4G\ 4A 4c#	4e/)	4r	.	4e/	-ne,	.	.
=49	=49	=49	=49	=49	=49	=49	=49
4FF#/	4.e:~/ 4.f#: 4.a: 4.ee:	2ryy	f	4.ee\	Rę-	.	.
4D\ 4F# 4A	.	.	.	.	.	.	.
.	8dd/L	.	.	8dd\	-ce	.	.
4Fn\ 4G#X	8cc#/	4d\ 4fn	.	8cc#\	two-	.	.
.	8b/J	.	.	8b\	-je	.	.
=50	=50	=50	=50	=50	=50	=50	=50
!	!LO:TX:b:t=rall.	!	!	!	!	!	!
8EE/L	4.d:~/ 4.e: 4.g: 4.dd:	2ryy	.	4.dd\	dwa	.	.
8AA/J	.	.	.	.	.	.	.
4Gn\	.	.	.	.	.	.	.
.	8cc#/L	.	.	8cc#\	po-	.	.
4A~\	8b~/	4c#\ 4e#X	.	8b\	-wo-	.	.
.	8a~/J	.	.	8a/	-je;	.	.
*	*v	*v	*	*	*	*	*
!!LO:LB:g=original
=51	=51	=51	=51	=51	=51	=51
!	!LO:TX:b:t=a tempo	!	!	!	!	!
4DD/ 4AA	(>4.f#\ 4.dd	.	4.dd\	War-	.	.
4F#:\ 4A: 4d:	.	.	.	.	.	.
.	8d/L 8b	.	8b\	-gi	.	.
4r	8f#/ 8dd	.	8dd\	głod-	.	.
.	8d/J) 8b	.	8b\	-ne	.	.
=52	=52	=52	=52	=52	=52	=52
4AAA/	(>4.f#\ 4.cc#	.	4.cc#\	pi-	.	.
4F#:\ 4A: 4d:	.	.	.	.	.	.
.	8d\L 8a	.	8a/	-ły	.	.
4r	8f#\ 8cc#	.	8cc#\	do	.	.
.	8d\J) 8a	.	8a/	dna	.	.
=53	=53	=53	=53	=53	=53	=53
*^	*^	*	*	*	*	*
8FF#/L	4ryy	(4.cc#/	2.d#X\	.	4.cc#\	Roz-	.	.
[8D#X/J	.	.	.	.	.	.	.	.
4F#/ 4A 4B	2D#\]	.	.	.	.	.	.	.
!	!	!	!	!LO:HP:b:t=cresc._:ext=ud	!	!	!	!
.	.	8a/L	.	<	8a/	-kosz	.	.
4r	.	8g#X/	.	.	8g#X/	grze-	.	.
.	.	8a/J	.	.	8a/	-chu	.	.
*v	*v	*	*	*	*	*	*	*
*	*v	*v	*	*	*	*	*
=54	=54	=54	=54	=54	=54	=54
4BBB/	2A/ 2d#X 2g#X	.	2g#X/	chci-	.	.
4BB:\ 4B:	.	.	.	.	.	.
4BB\ 4B	4A/) 4d# 4f#	[[	4f#/	-wie,	.	.
=55	=55	=55	=55	=55	=55	=55
8EE/L	(4.e\ 4.a 4.cc# 4.ee	.	4.ee\	Pal-	.	.
8E/J	.	.	.	.	.	.
2A\ 2c# 2e	.	.	.	.	.	.
.	8cc#\L	>	8cc#\	-ce	.	.
.	8a\	.	8a/	bia-	.	.
.	8f#\J)	]]	8f#/	-łe	.	.
=56	=56	=56	=56	=56	=56	=56
8EE/L	(4.d/ 4.f# 4.a 4.dd	.	4.dd\	O-	.	.
8E/J	.	.	.	.	.	.
4F#\ 4A 4d	.	.	.	.	.	.
.	8b\L	>	8b\	-sza-	.	.
4E\ 4G#X 4d	8g#X\	.	8g#X/	-la-	.	.
.	8e\J)	]]	8e/	-łe	.	.
=57	=57	=57	=57	=57	=57	=57
*^	*	*	*	*	*	*
8AA/L	2AA\	(>4.c#/ 4.e 4.gn 4.cc#	.	4.cc#\	Tak	.	.
8E/	.	.	.	.	.	.	.
8G/	.	.	.	.	.	.	.
8A/J	.	8b/L	.	8b\	u-	.	.
4c#~>/	4ryy	8g/	.	8gn/	-mia-	.	.
.	.	8e/J	.	8e/	-ły	.	.
=58	=58	=58	=58	=58	=58	=58	=58
*	*	*	*	*^	*	*	*
8AAA/L	4ryy	8c#/L	>	8c#/	4ryy	pieś-	.	.
(8AA/J	.	8e/J	.	8e/	.	-cić	.	.
!	!	!	!	!LO:TX:a:t=rall.	!LO:N:cue	!	!	!
4D~/) 4E 4G	2GG\	4B~/	.	4b/	4B\	tkli-	.	.
!	!	!	!	!	!LO:N:cue	!	!	!
4C#~/ 4E 4G	.	4A~/)	]]	4a/	4A\	-wie.	.	.
*v	*v	*	*	*v	*v	*	*	*
!!LO:LB:g=original
=59	=59	=59	=59	=59	=59	=59
!	!	!	!LO:TX:a:t=a tempo	!	!	!
4DD/	(4.ff#\ 4.ddd	pp	4.dd\	Po	.	.
2A:\ 2d: 2f#: 2a:	.	.	.	.	.	.
!	!LO:TX:b:t=a tempo	!	!	!	!	!
.	8dd\L 8bb	.	8b\	ci-	.	.
.	8ff#\ 8ddd	.	8dd\	-chut-	.	.
.	8dd\J) 8bb	.	8b\	-ku	.	.
=60	=60	=60	=60	=60	=60	=60
4AAA/	(4.ff#\ 4.ccc#	.	4.cc#\	To-	.	.
2A:\ 2d: 2f#: 2a:	.	.	.	.	.	.
.	8dd\L 8aa	.	8a/	-nę	.	.
.	8ff#\ 8ccc#	.	8cc#\	w smut-	.	.
.	8dd\J) 8aa	.	8a/	-ku	.	.
=61	=61	=61	=61	=61	=61	=61
4EE/	(4.cc#:\ 4.ee: 4.gg: 4.bb:	.	4.b\	Myśl	.	.
4G\ 4A 4c#	.	.	.	.	.	.
.	8aa\L	.	8a/	ku	.	.
4G\ 4A 4c#	8gg\	.	8g/	to-	.	.
.	8ff#\J	.	8f#/	-bie	.	.
=62	=62	=62	=62	=62	=62	=62
4AAA/	2g\ 2a 2cc# 2ff#	.	2f#/	błą-	.	.
4G\ 4A 4c#	.	.	.	.	.	.
4G\ 4A 4c#	4g\) 4a 4cc# 4ee	.	4e/	-dzi,	.	.
=63	=63	=63	=63	=63	=63	=63
4EE/	(4.cc#:\ 4.ee: 4.gg: 4.bb:	.	4.b\	Los	.	.
4G\ 4A 4c#	.	.	.	.	.	.
.	8aa\L	.	8a/	tak	.	.
4G\ 4A 4c#	8gg\	.	8g/	dziw-	.	.
.	8ff#\J	.	8f#/	-nie	.	.
=64	=64	=64	=64	=64	=64	=64
4AAA/	2g\ 2a 2cc# 2ff#	.	2f#/	rzą-	.	.
4G\ 4A 4c#	.	.	.	.	.	.
4G\ 4A 4c#	4g\) 4a 4cc# 4ee	.	4e/	-dzi.	.	.
=65	=65	=65	=65	=65	=65	=65
*	*^	*	*	*	*	*
4FF#^/	(4.ee:\ 4.ff#: 4.aa: 4.eee:	2ryy	mf	4.ee\	Pierz-	.	.
4F#\ 4A 4d	.	.	.	.	.	.	.
.	8ddd\L	.	.	8dd\	-chły	.	.
4Fn~\ 4G#X 4B 4d	8ccc#\	4dd/ 4ffn	.	8cc#\	chwi-	.	.
.	8bb\J)	.	<	8b\	-le	.	.
=66	=66	=66	=66	=66	=66	=66	=66
!	!	!	!	!LO:N:vis=4dd\	!	!	!
8EE/L	(4.dd\ 4.ee 4.gg 4.ddd	2ryy	.	4.dd\	W któ-	.	.
8AA/J	.	.	.	.	.	.	.
4Gn\	.	.	.	.	.	.	.
.	8ccc#\L	.	.	8cc#\	-rych	.	.
4A\ 4c# 4g	8bb\	4cc#/ 4gg	.	8b\	ty-	.	.
.	8aa\J)	.	[	8a/	-le	.	.
*	*v	*v	*	*	*	*	*
!!LO:PB:g=original
=67	=67	=67	=67	=67	=67	=67
4DD/	(4.e\ 4.f# 4.ccn 4.ee	.	4.ee\	By-	.	.
4D\ 4F# 4cn	.	.	.	.	.	.
.	8dd\L	.	8dd\	-ło	.	.
4D\ 4F# 4c	8b\	.	8b\	dla	.	.
.	8dd\J	.	8dd\	mnie	.	.
=68	=68	=68	=68	=68	=68	=68
*	*^	*	*	*	*	*
4FF#/	2b/	4r	.	2b\	słoń-	.	.
4D\ 4F# 4A	.	2cn\ 2d 2f#	.	.	.	.	.
4D\ 4F# 4A	4a/)	.	.	4a/	-ca...	.	.
=69	=69	=69	=69	=69	=69	=69	=69
4BBB/	4.a/	(>2.d\ 2.dd	.	4.a/	Dziś	.	.
4D\ 4G 4B	.	.	.	.	.	.	.
.	8g/L	.	.	8g/	po-	.	.
4D\ 4G 4B	8f#/	.	.	8f#/	-czą-	.	.
.	8g/J	.	.	8g/	-tek	.	.
=70	=70	=70	=70	=70	=70	=70	=70
2.BB-X/	2f#/	4r	>	2f#/	koń-	.	.
.	.	4G\ 4B-X 4d	.	.	.	.	.
!	!	!LO:TX:a:t="	!	!LO:TX:a:t="	!	!	!
.	4e/)	4G\ 4B- 4d	]]	4e/	-ca!	.	.
*	*v	*v	*	*	*	*	*
=71	=71;	=71	=71;	=71	=71	=71
4AAA/	8A/L 8d 8f#	p	8f#/	W o-	.	.
.	8a/J	.	8a/	-czach	.	.
4F#\ 4A 4d	4a/	.	4a/	łzy	.	.
4F#\ 4A 4d	4a/	.	4a/	Kto	.	.
=72	=72	=72	=72	=72	=72	=72
4AAA/	8B:\L 8d: 8g: 8b:	.	8b\	wi-	.	.
.	8ff#\J	.	8ff#\	-nien	.	.
4A\ 4c# 4g	4ff#\	.	4ff#\	ja	.	.
4A~\	4g~\ 4a 4cc# 4ff#	.	4ff#~\	czy	.	.
=73	=73	=73	=73	=73	=73	=73
.	.	.	8qff#/	.	.	.
*	*^	*	*	*	*	*
8DD\L 8D	2.dd/	4r	.	[2.dd\	ty?!..	.	.
8B\	.	.	.	.	.	.	.
8A\	.	4f#\ 4a	.	.	.	.	.
8F#\	.	.	.	.	.	.	.
8D\	.	4f#\ 4a	.	.	.	.	.
8AA\J	.	.	.	.	.	.	.
*	*v	*v	*	*	*	*	*
=74	=74	=74	=74	=74	=74	=74
*>B1	*>B1	*	*>B1	*	*	*
2DD/	4r	.	4dd\]	.	.	.
.	4A:/ 4d: 4f#:	.	4r	.	.	.
4ryy	4A:/ 4d: 4f#:	.	4r	.	.	.
=75:|!	=75:|!	=75:|!	=75:|!	=75:|!	=75:|!	=75:|!
*>B2	*>B2	*	*>B2	*	*	*
!	!	!	!LO:TIE:lv	!	!	!
!	!	!	!LO:TX:a:i:t=l.v.	!	!	!
(8D\L	2.r	.	4dd\]	.	.	.
8E\	.	.	.	.	.	.
8F#\	.	.	4r	.	.	.
8A\	.	.	.	.	.	.
8B~\)	.	.	4r	.	.	.
8d~\J	.	.	.	.	.	.
!!LO:LB:g=original
=76	=76	=76	=76	=76	=76	=76
*>C	*>C	*	*>C	*	*	*
!	!LO:TX:a:t=Piu moderato.	!	!	!	!	!
4DD/ 4AA	(4.ff#\ 4.ddd	ppp	2.ryy	.	.	.
4A:\ 4d: 4f#:	.	.	.	.	.	.
.	8dd\L 8bb	.	.	.	.	.
4r	8ff#\ 8ddd	.	.	.	.	.
.	8dd\J) 8bb	.	.	.	.	.
=77	=77	=77	=77	=77	=77	=77
4AAA/	(4.ff#\ 4.ccc#	.	2.ryy	.	.	.
4A:\ 4d: 4f#:	.	.	.	.	.	.
.	8dd\L 8aa	.	.	.	.	.
4r	8ff#\ 8ccc#	.	.	.	.	.
.	8dd\J) 8aa	.	.	.	.	.
=78	=78	=78	=78	=78	=78	=78
4EE/	(4.cc#:\ 4.ee: 4.gg: 4.bb:	.	2.ryy	.	.	.
4G\ 4A 4c#	.	.	.	.	.	.
.	8aa\L	.	.	.	.	.
4G\ 4A 4c#	8gg\	.	.	.	.	.
.	8ff#\J)	.	.	.	.	.
=79	=79	=79	=79	=79	=79	=79
4AAA/	2g\ 2a 2cc# 2ff#	>	2.ryy	.	.	.
4G\ 4A 4c#	.	.	.	.	.	.
4G\ 4A 4c#	4g\ 4a 4cc# 4ee	]]	.	.	.	.
=80	=80	=80	=80	=80	=80	=80
4EE/	(4.cc#:\ 4.ee: 4.gg: 4.bb:	.	2.ryy	.	.	.
4G\ 4A 4c#	.	.	.	.	.	.
.	8aa\L	.	.	.	.	.
4G\ 4A 4c#	8gg\	.	.	.	.	.
.	8ff#\J	.	.	.	.	.
=81	=81	=81	=81	=81	=81	=81
4AA/	2g\ 2a 2cc# 2ff#	.	2.ryy	.	.	.
4G\ 4A 4c#	.	.	.	.	.	.
4G\ 4A 4c#	4g\) 4a 4cc# 4ee	.	.	.	.	.
=82	=82	=82	=82	=82	=82	=82
*	*^	*	*	*	*	*
4FF#^/	(4.ee:\ 4.ff#: 4.aa: 4.eee:	2ryy	.	2.ryy	.	.	.
4F#\ 4A 4d	.	.	.	.	.	.	.
.	8ddd\L	.	.	.	.	.	.
4Fn\ 4G#X 4B 4d	8ccc#\	4dd/ 4ffn	.	.	.	.	.
.	8bb\J)	.	.	.	.	.	.
=83	=83	=83	=83	=83	=83	=83	=83
8EE/L	4.dd~:\ 4.ee: 4.gg: 4.ddd:	2ryy	.	2.ryy	.	.	.
8AA/J	.	.	.	.	.	.	.
4Gn\	.	.	.	.	.	.	.
.	8ccc#~\L	.	.	.	.	.	.
4A~\	8bb~\	4cc#/ 4ee#X	.	.	.	.	.
.	8aa~\J	.	.	.	.	.	.
*	*v	*v	*	*	*	*	*
!!LO:LB:g=original
=84	=84	=84	=84	=84	=84	=84
4DD/ 4AA	(4.ff#\ 4.ddd	.	2.ryy	.	.	.
4A:\ 4d: 4f#:	.	.	.	.	.	.
.	8dd\L 8bb	.	.	.	.	.
4r	8ff#\ 8ddd	.	.	.	.	.
.	8dd\J) 8bb	.	.	.	.	.
=85	=85	=85	=85	=85	=85	=85
4CC#/	(4.ff#\ 4.ccc#	.	2.ryy	.	.	.
4A:\ 4d: 4f#:	.	.	.	.	.	.
.	8dd\L 8aa	.	.	.	.	.
4r	8ff#\ 8ccc#	.	.	.	.	.
.	8dd\J) 8aa	.	.	.	.	.
=86	=86	=86	=86	=86	=86	=86
*^	*^	*	*	*	*	*
8FF#/L	4ryy	2.dd#X/	(>4.ccc#\	.	2.ryy	.	.	.
[8F#/J	.	.	.	.	.	.	.	.
4A/ 4B 4d#X	2F#\]	.	.	<	.	.	.	.
.	.	.	8aa\L	.	.	.	.	.
4A/ 4B 4d#	.	.	8gg\	.	.	.	.	.
.	.	.	8aa\J	.	.	.	.	.
*	*	*v	*v	*	*	*	*	*
=87	=87	=87	=87	=87	=87	=87	=87
8BB/L	4ryy	2a\ 2dd#X 2gg#X	.	2.ryy	.	.	.
[8F#/J	.	.	.	.	.	.	.
4A/ 4B 4d#X	2F#\]	.	.	.	.	.	.
4A/ 4B 4d#	.	4a\) 4dd# 4ff#	[	.	.	.	.
=88	=88	=88	=88	=88	=88	=88	=88
8EE/L	4ryy	(4.ee:\ 4.aa: 4.ccc#: 4.eee:	mf	2.ryy	.	.	.
[8E/J	.	.	.	.	.	.	.
2A/ 2c# 2e	2E\]	.	.	.	.	.	.
.	.	8ccc#\L	>	.	.	.	.
.	.	8aa\	.	.	.	.	.
.	.	8ff#\J)	]]	.	.	.	.
*v	*v	*	*	*	*	*	*
=89	=89	=89	=89	=89	=89	=89
8EE/L	(4.dd\ 4.ff# 4.aa 4.ddd	>	2.ryy	.	.	.
8E/J	.	.	.	.	.	.
4A\ 4d 4f#	.	.	.	.	.	.
.	8bb\L	.	.	.	.	.
4B\ 4d 4e 4g#X	8gg#X\	.	.	.	.	.
.	8ee\J)	]	.	.	.	.
=90	=90	=90	=90	=90	=90	=90
*^	*	*	*	*	*	*
8AA/L	2AA\	(4.cc#\ 4.ee 4.ggn 4.ccc#	.	2.ryy	.	.	.
8E/	.	.	.	.	.	.	.
8Gn/	.	.	.	.	.	.	.
8A/J	.	8bb\L	.	.	.	.	.
4c#/	4r	8gg\	.	.	.	.	.
.	.	8ee\J	.	.	.	.	.
=91	=91	=91	=91	=91	=91	=91	=91
8AA/L	4ryy	8cc#\L	.	2.ryy	.	.	.
8A/J	.	8ee\J	.	.	.	.	.
4d~/ 4e 4g	2A\	4b~\	.	.	.	.	.
4c#~/ 4e 4g	.	4a~>/)	.	.	.	.	.
*v	*v	*	*	*	*	*	*
!!LO:LB:g=original
=92	=92	=92	=92	=92	=92	=92
4DD/ 4AA	(4.f#\ 4.dd	p	4.dd\	Po	.	.
4F#:\ 4A: 4d:	.	.	.	.	.	.
.	8d\L 8b	.	8b\	ci-	.	.
4r	8f#\ 8dd	.	8dd\	-chut-	.	.
.	8d\J) 8b	.	8b\	-ku	.	.
=93	=93	=93	=93	=93	=93	=93
4AAA/	(4.f#\ 4.cc#	.	4.cc#\	To-	.	.
4F#:\ 4A: 4d:	.	.	.	.	.	.
.	8d\L 8a	.	8a/	-nę	.	.
4r	8f#\ 8cc#	.	8cc#\	w smut-	.	.
.	8d\J) 8a	.	8a/	-ku	.	.
=94	=94	=94	=94	=94	=94	=94
4EE/	(>4.c#/ 4.e 4.g 4.b	.	4.b\	Myśl	.	.
4G\ 4A 4c#	.	.	.	.	.	.
.	8a/L	.	8a/	ku	.	.
4G\ 4A 4c#	8g/	.	8g/	to-	.	.
.	8f#/J	.	8f#/	-bie	.	.
=95	=95	=95	=95	=95	=95	=95
*	*^	*	*	*	*	*
4AAA/	2f#/	4G\ 4A 4c#	.	2f#/	błą-	.	.
4G\ 4A 4c#	.	4r	.	.	.	.	.
4G\ 4A 4c#	4e/)	4r	.	4e/	-dzi,	.	.
*	*v	*v	*	*	*	*	*
=96	=96	=96	=96	=96	=96	=96
4EE/	(>4.c#:/ 4.e: 4.g: 4.b:	.	4.b\	Los	.	.
4G\ 4A 4c#	.	.	.	.	.	.
.	8a/L	.	8a/	tak	.	.
4G\ 4A 4c#	8g/	.	8g/	dziw-	.	.
.	8f#/J	.	8f#/	-nie	.	.
=97	=97	=97	=97	=97	=97	=97
*	*^	*	*	*	*	*
4AAA/	2f#/	4G\ 4A 4c#	.	2f#/	rzą-	.	.
4G\ 4A 4c#	.	4r	.	.	.	.	.
4G\ 4A 4c#	4e/)	4r	.	4e/	-dzi,	.	.
=98	=98	=98	=98	=98	=98	=98	=98
4FF#/	4.e/ 4.f# 4.a 4.ee	2ryy	<	4.ee\	Pierz-	.	.
4D\ 4F# 4A	.	.	.	.	.	.	.
.	8dd/L	.	.	8dd\	-chły	.	.
4Fn\ 4G#X	8cc#/	4d\ 4fn	.	8cc#\	chwi-	.	.
.	8b/J	.	.	8b\	-le	.	.
=99	=99	=99	=99	=99	=99	=99	=99
8EE/L	4.d~/ 4.e 4.g 4.dd	2ryy	.	4.dd\	W któ-	.	.
8AA/J	.	.	.	.	.	.	.
4Gn\	.	.	.	.	.	.	.
.	8cc#~>/L	.	.	8cc#\	-rych	.	.
4A~\	8b~/	4c#\ 4g	.	8b\	ty-	.	.
.	8a~/J	.	.	8a/	-le	.	.
*	*v	*v	*	*	*	*	*
!!LO:LB:g=original
=100	=100	=100	=100	=100	=100	=100
4DD/	(4.e:/ 4.f#: 4.ccn: 4.ee:	f	4.ee\	By-	.	.
4D\ 4F# 4cn	.	.	.	.	.	.
.	8dd\L	.	8dd\	-ło	.	.
4D\ 4F# 4c	8b\	.	8b\	dla	.	.
.	8dd\J	.	8dd\	mnie	.	.
=101	=101	=101	=101	=101	=101	=101
*	*^	*	*	*	*	*
4FF#/	2b/	4r	.	2b\	słoń-	.	.
4D\ 4F# 4A	.	2c#\ 2d 2f#	.	.	.	.	.
4D\ 4F# 4A	4a/)	.	.	4a/	-ca!	.	.
=102	=102	=102	=102	=102	=102	=102	=102
4BBB/	4.a/	(>2.d\ 2.dd	.	4.a/	Dziś	.	.
4D\ 4G 4B	.	.	.	.	.	.	.
.	8g/L	.	.	8g/	po-	.	.
4D\ 4G 4B	8f#/	.	.	8f#/	-czą-	.	.
.	8g/J	.	.	8g/	-tek	.	.
=103	=103	=103	=103	=103	=103	=103	=103
2.BB-X~>/	2f#/	4r	>	2f#/	koń-	.	.
.	.	4G\ 4B-X 4d	.	.	.	.	.
!	!LO:TX:a:t="	!	!	!LO:TX:a:t="	!	!	!
.	4e/)	4G\ 4B- 4d	.	4e/	-ca!..	.	.
*	*v	*v	*	*	*	*	*
=104	=104;	=104	=104;	=104	=104	=104
4AAA/	8A:/L 8d: 8f#:	]	8f#/	W o-	.	.
.	8a/J	.	8a/	-czach	.	.
4F#\ 4A 4d	4a/	<	4a,/	łzy...	.	.
4F#\ 4A 4d	4a/	.	4a/	Kto	.	.
=105	=105	=105	=105	=105	=105	=105
*	*	*	*^	*	*	*
4AAA/	(8B\L 8d 8g 8b	.	8b\	2ryy	wi-	.	.
.	8ff#\J)	.	8ff#,\	.	-nien?	.	.
4G\ 4A 4c#	4g\ 4a 4cc# 4ff#	.	4ff#\	.	ja	.	.
!	!	!	!	!LO:N:cue	!	!	!
4AA;\ 4A	4g;\ 4a 4ff# 4aa	[	4ff#\	4aa;>/	czy	.	.
*	*	*	*v	*v	*	*	*
=106	=106	=106	=106	=106	=106	=106
(8DD\L 8D	2dd:\ 2ff#: 2aa: 2ddd:	.	[2.dd\	ty?!	.	.
8B\	.	.	.	.	.	.
8A\	.	.	.	.	.	.
8F#\	.	.	.	.	.	.
8D\	4ryy	.	.	.	.	.
8AA\J	.	.	.	.	.	.
=107	=107	=107	=107	=107	=107	=107
*	*8va	*	*	*	*	*
2.DD;/)	2.ddd:\ 2.fff#: 2.aaa: 2.dddd:	ppp	4dd\]	.	.	.
.	.	.	4r	.	.	.
.	.	.	4r	.	.	.
*	*X8va	*	*	*	*	*
==	==	==	==	==	==	==
*-	*-	*-	*-	*-	*-	*-
!!!system-decoration: s1{(s2,s3)}
!!!RDF**kern: < = below
!!!RDF**kern: > = above
!!!ENC: Andrzej Gręziak
!!!END: 2023-09-07
!!!ENC: Marta Chmielewska
!!!END: 2023-09-23
